public/assets/img/casestudies/borgatta/brand-md.svg

<svg fill="none" height="99" viewBox="0 0 684 99" width="684" xmlns="http://www.w3.org/2000/svg" xmlns:xlink="http://www.w3.org/1999/xlink"><clipPath id="a"><path d="m301.055 19.9033h382.002v76.2418h-382.002z"/></clipPath><path clip-rule="evenodd" d="m0 27.5773v4.8337c0 5.9872 4.89151 14.3638 13.1715 17.2201 0 0 .0615.0239.1761.0686-.1146.0447-.176.0687-.176.0687-8.28009 2.8562-13.1716 11.2603-13.1716 17.22v4.8337c0 15.6546 12.871 23.3171 25.4686 23.3171 7.5869 0 14.9706-3.0883 19.8255-9.1171 4.8545 6.0469 12.2491 9.1446 19.8475 9.1446 12.5977 0 25.4686-7.69 25.4686-23.3171v-4.8337c0-5.9597-4.8915-14.3638-13.1442-17.22-.0025-.0026-.0908-.0384-.2512-.1022.1489-.0585.2296-.0901.2296-.0901 8.28-2.8563 13.1442-11.2328 13.1442-17.22v-4.8063c.0273-15.6271-12.8437-23.31705-25.4413-23.31705-7.6205 0-14.9865 3.09411-19.8394 9.13425-4.8528-6.04014-12.2188-9.13425-19.8393-9.13425-12.5976 0-25.4686 7.68995-25.4686 23.31705zm50.9646 3.7074c.0004-.0125.0125-.3741 0-.9956v-.4597c.6559-9.3928 7.4603-13.8969 14.3193-13.8969 6.941 0 14.0187 3.9823 14.0187 11.6448v4.8337c0 6.2619-6.3398 11.123-14.7292 12.2216 0 0-.0001.0101-.0003.0297-.0018-.0007-.0036-.0015-.0054-.0022-.0585 0-.0544 2.8903-.038 5.5797-.0102 2.2458-.0074 4.3439.0376 4.4915.0003.0234.0004.0356.0004.0356 8.362 1.126 14.7292 5.9597 14.7292 12.2215v4.8337c0 7.69-7.0777 11.6723-14.0187 11.6723-6.7642 0-13.5283-4.3804-14.3432-13.5099.0545-1.1611.0296-1.8701.0296-1.8701zm-11.2862-1.8177c-.7793-9.1462-7.5762-13.5345-14.3464-13.5345-6.941 0-14.0187 3.9549-14.0187 11.6448v4.8612c0 6.2618 6.3399 11.123 14.7292 12.2215.0548-.0137.0547 2.5237.0409 5.0591.0138 2.5386.0139 5.0753-.0409 5.0478-8.3893 1.0985-14.7292 5.9597-14.7292 12.2215v4.8337c0 7.69 7.0777 11.6723 14.0187 11.6723 6.8591 0 13.6634-4.4492 14.3193-13.842v-.2771c-.0217-.7782-.0057-1.2334-.0057-1.2334l.0057.0008v-36.8577-.9887c.0046-.2394.013-.5175.0271-.8293zm82.6096-25.15065c-12.27 0-23.4738 6.61885-23.4738 21.20235v47.925c0 14.556 11.5868 21.5868 23.7198 21.5868 11.614 0 23.61-7.0034 23.61-21.5868v-16.5609c0-14.3089-11.477-20.9277-23.61-20.9277-4.072 0-11.204 2.5267-13.445 7.8273l.137-18.2912c0-7.0308 6.34-10.6011 13.062-10.6011 3.962 0 8.171 1.3457 12.789 5.7125l1.968-1.9774h.136c.094-.0877.179-.1697.257-.2456.267-.257.461-.4449.672-.5509.123-.1237.335-.3365.576-.4779-.012.0142.011.0022.08-.0439-.027.0136-.054.0283-.08.0439.042-.0511.534-.4393 1.01-.8148v-.0001-.0001c.184-.1453.366-.2887.518-.4099l.028-.022c.673-.5414 1.329-1.0685 2.623-2.5047-7.515-7.82725-13.718-9.28285-20.577-9.28285zm.246 42.15755c6.722 0 13.062 3.433 13.062 10.4638v16.5884c-.273 7.1681-6.859 10.8758-13.199 10.8758-6.585 0-13.171-3.7077-13.171-10.8758v-16.1764c0-7.4428 6.449-10.8758 13.308-10.8758zm36.507-20.6815c0-14.3912 11.805-21.44953 24.13-21.44953 11.805 0 23.883 7.05833 23.883 21.44953v47.5954c0 14.8032-12.078 21.8615-23.883 21.8615-12.325 0-24.13-7.0583-24.13-21.8615zm10.63 47.5679c0 7.3329 6.641 11.0681 13.527 11.0681 6.504 0 13.254-3.7352 13.254-11.0681v-47.5679c0-6.921-6.75-10.6561-13.254-10.6561-6.886 0-13.527 3.7351-13.527 10.6561z" fill="#fbfbfd" fill-rule="evenodd"/><path d="m254.055 2.75488v94.00002" stroke="#fff" stroke-linecap="round" stroke-width="3.81081"/><g clip-path="url(#a)" fill="#fff"><path d="m675.922 79.952c3.939 0 7.133-3.1934 7.133-7.1327s-3.194-7.1328-7.133-7.1328c-3.94 0-7.133 3.1935-7.133 7.1328s3.193 7.1327 7.133 7.1327z"/><path d="m665.558 48.9206c-2.468-5.8473-11.174-9.4326-22.581-9.4326h-.065c-6.031.0573-12.036.8016-17.899 2.2184-1.379.3353-2.606 1.1238-3.483 2.2392-.877 1.1153-1.355 2.4928-1.356 3.9118v5.1313c6.819-2.8415 14.13-4.3158 21.518-4.3394 8.478 0 12.947 2.0341 12.947 5.2886v.3634c-12.519 0-24.218.2604-31.151 2.8585-4.643 1.7195-8.374 4.936-8.374 10.7561-.005.948.104 1.8932.325 2.8151-1.188.1656-2.386.2489-3.585.2496-5.121 0-9.346-1.5459-9.346-6.905v-14.4336h16.218v-9.6225h-16.218v-8.8305h-7.209c-1.223-.0008-2.401.4604-3.298 1.2912s-1.447 1.9699-1.54 3.1892l-.337 4.3393h-23.285v-8.8197h-7.166c-1.235-.0033-2.425.4616-3.331 1.301-.906.8395-1.46 1.9911-1.551 3.2228l-.336 4.3067h-7.735v6.2866c-3.666-4.2851-11.347-6.8181-20.937-6.8181h-.07c-5.919.066-11.812.7937-17.569 2.1696-1.467.3563-2.771 1.1948-3.703 2.3811-.933 1.1863-1.44 2.6515-1.439 4.1604v4.7896c6.812-2.8387 14.115-4.313 21.496-4.3394 8.483 0 12.947 2.0341 12.947 5.2886v.3634c-12.519 0-24.219.2604-31.156 2.8585-3.933 1.4483-7.225 3.9868-8.137 8.2773v-24.0453h-8.396c-.772.0047-1.516.2831-2.101.7858-.586.5027-.973 1.1969-1.094 1.9589l-.239 1.6272c-5.098-4.6648-12.557-6.1781-18.339-6.1781-6.091 0-14.103 1.6761-19.31 6.7585v-6.829c-2.337-.4716-4.715-.7132-7.1-.7214-6.444 0-14 1.9038-18.274 8.0169l-.656-6.0425h-5.641c-1.467 0-2.873.5821-3.911 1.6185-1.037 1.0364-1.621 2.4423-1.622 3.9087v7.4636c-3.965-10.8483-17.33-13.3271-27.072-13.3271-10.458 0-25.076 2.8422-27.788 15.833-3.097-13.5603-17.949-13.1806-17.949-13.1806h-25.32v-23.1828l-12.285.0434v58.8953l40.637-.0867c2.399.0707 4.784-.3925 6.981-1.3561 1.88-.7808 3.552-1.99 4.882-3.5311 1.298-1.6081 2.244-3.4707 2.777-5.4675.203-.7376.365-1.4854.488-2.2402 3.184 12.2314 17.358 14.9489 27.582 14.9489 9.764 0 23.107-2.4734 27.072-13.3325v13.0179h11.83v-14.7536c0-10.8483 4.21-17.4821 17.488-17.4821 1.869.0344 3.733.2249 5.571.5696-1.877 2.8043-3.027 6.3571-3.027 10.8049 0 15.9687 14.824 20.3405 24.653 20.3405 5.782 0 13.24-1.5079 18.339-6.1781v.4285c0 8.4454-7.052 11.6023-17.553 11.6023-5.925-.0448-11.793-1.164-17.319-3.3033v10.1214c5.749 1.9039 11.038 3.2165 17.124 3.2165 20.867 0 29.578-9.6278 29.578-20.4381v-5.3157c1.546 7.2846 10.04 9.7635 18.746 9.7635 9.503 0 17.65-2.9562 20.541-6.6717l.645 7.0947h11.174v-24.349c0-3.2544-.173-5.1149-.656-6.6066h5.825v14.374c0 13.159 9.764 16.7661 20.314 16.7661 3.393-.0825 6.758-.63 10.002-1.6273v-9.6441c-2.757.9917-5.667 1.4911-8.597 1.4754-5.121 0-9.346-1.5459-9.346-6.905v-14.4336h23.324v14.3685c0 13.159 9.763 16.7661 20.308 16.7661 3.393-.0813 6.758-.6289 10.002-1.6273v-1.9418c3.596 2.1696 8.592 2.9887 13.664 2.9887 9.492 0 17.644-2.9562 20.535-6.6717l.662 7.0893h11.174v-24.3707c-.006-3.7969-.239-5.6845-.917-7.3225zm-321.11 15.5293c-.256.7375-.726 1.3817-1.351 1.8496-.599.3986-1.293.6324-2.012.678-.812.0692-1.626.0963-2.441.0814l-25.325.0868v-12.4756l25.347-.0542c.814-.0159 1.629.0131 2.441.0868.717.0463 1.411.278 2.012.6726.615.4703 1.077 1.1119 1.329 1.8442.402 1.1605.585 2.3852.542 3.6125.043 1.229-.141 2.4554-.542 3.6179zm39.933 7.3009c-7.86 0-16.403-2.7609-16.403-10.9785s8.543-10.973 16.403-10.973c7.859 0 16.397 2.7554 16.397 10.973s-8.521 10.9785-16.376 10.9785zm86.369-.8625c-7.464 0-15.579-2.7663-15.579-10.9784 0-8.2122 8.137-10.9785 15.579-10.9785 7.441 0 15.578 3.5148 15.578 11.0002 0 7.4853-8.12 10.9567-15.578 10.9567zm46.815.293c-2.402 0-7.132-.5425-7.132-3.7102.031-.6253.223-1.232.556-1.7619.334-.53.798-.9655 1.348-1.2647 4.274-2.5982 17.812-2.5982 22.58-2.5982h2.528c0 4.8492-7.919 9.3566-19.88 9.3566zm117.189 0c-2.402 0-7.132-.5425-7.132-3.7102.03-.6262.222-1.2339.557-1.7642.334-.5302.8-.9651 1.352-1.2624 4.269-2.5982 17.807-2.5982 22.575-2.5982h2.528c0 4.8492-7.919 9.3566-19.88 9.3566z"/></g></svg>

<svg width="684" height="99" viewBox="0 0 684 99" fill="none" xmlns="http://www.w3.org/2000/svg">
<path fill-rule="evenodd" clip-rule="evenodd" d="M0 27.5773V32.411C0 38.3982 4.89151 46.7748 13.1715 49.6311C13.1715 49.6311 13.233 49.655 13.3476 49.6997C13.233 49.7444 13.1716 49.7684 13.1716 49.7684C4.89151 52.6246 0 61.0287 0 66.9884V71.8221C0 87.4767 12.871 95.1392 25.4686 95.1392C33.0555 95.1392 40.4392 92.0509 45.2941 86.0221C50.1486 92.069 57.5432 95.1667 65.1416 95.1667C77.7393 95.1667 90.6102 87.4767 90.6102 71.8496V67.0159C90.6102 61.0562 85.7187 52.6521 77.466 49.7959C77.4635 49.7933 77.3752 49.7575 77.2148 49.6937C77.3637 49.6352 77.4444 49.6036 77.4444 49.6036C85.7244 46.7473 90.5886 38.3708 90.5886 32.3836V27.5773C90.6159 11.9502 77.7449 4.26025 65.1473 4.26025C57.5268 4.26025 50.1608 7.35436 45.3079 13.3945C40.4551 7.35436 33.0891 4.26025 25.4686 4.26025C12.871 4.26025 0 11.9502 0 27.5773ZM50.9646 31.2847C50.965 31.2722 50.9771 30.9106 50.9646 30.2891V29.8294C51.6205 20.4366 58.4249 15.9325 65.2839 15.9325C72.2249 15.9325 79.3026 19.9148 79.3026 27.5773V32.411C79.3026 38.6729 72.9628 43.534 64.5734 44.6326C64.5734 44.6326 64.5733 44.6427 64.5731 44.6623C64.5713 44.6616 64.5695 44.6608 64.5677 44.6601C64.5092 44.6601 64.5133 47.5504 64.5297 50.2398C64.5195 52.4856 64.5223 54.5837 64.5673 54.7313C64.5676 54.7547 64.5677 54.7669 64.5677 54.7669C72.9297 55.8929 79.2969 60.7266 79.2969 66.9884V71.8221C79.2969 79.5121 72.2192 83.4944 65.2782 83.4944C58.514 83.4944 51.7499 79.114 50.935 69.9845C50.9895 68.8234 50.9646 68.1144 50.9646 68.1144V31.2847ZM39.6784 29.467C38.8991 20.3208 32.1022 15.9325 25.332 15.9325C18.391 15.9325 11.3133 19.8874 11.3133 27.5773V32.4385C11.3133 38.7003 17.6532 43.5615 26.0425 44.66C26.0973 44.6463 26.0972 47.1837 26.0834 49.7191C26.0972 52.2577 26.0973 54.7944 26.0425 54.7669C17.6532 55.8654 11.3133 60.7266 11.3133 66.9884V71.8221C11.3133 79.5121 18.391 83.4944 25.332 83.4944C32.1911 83.4944 38.9954 79.0452 39.6513 69.6524V69.3753C39.6296 68.5971 39.6456 68.1419 39.6456 68.1419L39.6513 68.1427V31.285V30.2963C39.6559 30.0569 39.6643 29.7788 39.6784 29.467ZM122.288 4.31635C110.018 4.31635 98.8142 10.9352 98.8142 25.5187V73.4437C98.8142 87.9997 110.401 95.0305 122.534 95.0305C134.148 95.0305 146.144 88.0271 146.144 73.4437V56.8828C146.144 42.5739 134.667 35.9551 122.534 35.9551C118.462 35.9551 111.33 38.4818 109.089 43.7824L109.226 25.4912C109.226 18.4604 115.566 14.8901 122.288 14.8901C126.25 14.8901 130.459 16.2358 135.077 20.6026L137.045 18.6252H137.181C137.275 18.5375 137.36 18.4555 137.438 18.3796C137.705 18.1226 137.899 17.9347 138.11 17.8287C138.233 17.705 138.445 17.4922 138.686 17.3508C138.674 17.365 138.697 17.353 138.766 17.3069C138.739 17.3205 138.712 17.3352 138.686 17.3508C138.728 17.2997 139.22 16.9115 139.696 16.536L139.696 16.5359L139.696 16.5358C139.88 16.3905 140.062 16.2471 140.214 16.1259L140.242 16.1039C140.915 15.5625 141.571 15.0354 142.865 13.5992C135.35 5.77195 129.147 4.31635 122.288 4.31635ZM122.534 46.4739C129.256 46.4739 135.596 49.9069 135.596 56.9377V73.5261C135.323 80.6942 128.737 84.4019 122.397 84.4019C115.812 84.4019 109.226 80.6942 109.226 73.5261V57.3497C109.226 49.9069 115.675 46.4739 122.534 46.4739ZM159.041 25.7924C159.041 11.4012 170.846 4.34287 183.171 4.34287C194.976 4.34287 207.054 11.4012 207.054 25.7924V73.3878C207.054 88.191 194.976 95.2493 183.171 95.2493C170.846 95.2493 159.041 88.191 159.041 73.3878V25.7924ZM169.671 73.3603C169.671 80.6932 176.312 84.4284 183.198 84.4284C189.702 84.4284 196.452 80.6932 196.452 73.3603V25.7924C196.452 18.8714 189.702 15.1363 183.198 15.1363C176.312 15.1363 169.671 18.8714 169.671 25.7924V73.3603Z" fill="#FBFBFD"/>
<path d="M254.055 2.75488V96.7549" stroke="white" stroke-width="3.81081" stroke-linecap="round"/>
<g clip-path="url(#clip0_1947_119563)">
<path d="M675.922 79.952C679.861 79.952 683.055 76.7586 683.055 72.8193C683.055 68.88 679.861 65.6865 675.922 65.6865C671.982 65.6865 668.789 68.88 668.789 72.8193C668.789 76.7586 671.982 79.952 675.922 79.952Z" fill="white"/>
<path d="M665.558 48.9206C663.09 43.0733 654.384 39.488 642.977 39.488H642.912C636.881 39.5453 630.876 40.2896 625.013 41.7064C623.634 42.0417 622.407 42.8302 621.53 43.9456C620.653 45.0609 620.175 46.4384 620.174 47.8574V52.9887C626.993 50.1472 634.304 48.6729 641.692 48.6493C650.17 48.6493 654.639 50.6834 654.639 53.9379V54.3013C642.12 54.3013 630.421 54.5617 623.488 57.1598C618.845 58.8793 615.114 62.0958 615.114 67.9159C615.109 68.8639 615.218 69.8091 615.439 70.731C614.251 70.8966 613.053 70.9799 611.854 70.9806C606.733 70.9806 602.508 69.4347 602.508 64.0756V49.642H618.726V40.0195H602.508V31.189H595.299C594.076 31.1882 592.898 31.6494 592.001 32.4802C591.104 33.311 590.554 34.4501 590.461 35.6694L590.124 40.0087H566.839V31.189H559.673C558.438 31.1857 557.248 31.6506 556.342 32.49C555.436 33.3295 554.882 34.4811 554.791 35.7128L554.455 40.0195H546.72V46.3061C543.054 42.021 535.373 39.488 525.783 39.488H525.713C519.794 39.554 513.901 40.2817 508.144 41.6576C506.677 42.0139 505.373 42.8524 504.441 44.0387C503.508 45.225 503.001 46.6902 503.002 48.1991V52.9887C509.814 50.15 517.117 48.6757 524.498 48.6493C532.981 48.6493 537.445 50.6834 537.445 53.9379V54.3013C524.926 54.3013 513.226 54.5617 506.289 57.1598C502.356 58.6081 499.064 61.1466 498.152 65.4371V41.3918H489.756C488.984 41.3965 488.24 41.6749 487.655 42.1776C487.069 42.6803 486.682 43.3745 486.561 44.1365L486.322 45.7637C481.224 41.0989 473.765 39.5856 467.983 39.5856C461.892 39.5856 453.88 41.2617 448.673 46.3441V39.5151C446.336 39.0435 443.958 38.8019 441.573 38.7937C435.129 38.7937 427.573 40.6975 423.299 46.8106L422.643 40.7681H417.002C415.535 40.7681 414.129 41.3502 413.091 42.3866C412.054 43.423 411.47 44.8289 411.469 46.2953V53.7589C407.504 42.9106 394.139 40.4318 384.397 40.4318C373.939 40.4318 359.321 43.274 356.609 56.2648C353.512 42.7045 338.66 43.0842 338.66 43.0842H313.34V19.9014L301.055 19.9448V78.8401L341.692 78.7534C344.091 78.8241 346.476 78.3609 348.673 77.3973C350.553 76.6165 352.225 75.4073 353.555 73.8662C354.853 72.2581 355.799 70.3955 356.332 68.3987C356.535 67.6611 356.697 66.9133 356.82 66.1585C360.004 78.3899 374.178 81.1074 384.402 81.1074C394.166 81.1074 407.509 78.634 411.474 67.7749V80.7928H423.304V66.0392C423.304 55.1909 427.514 48.5571 440.792 48.5571C442.661 48.5915 444.525 48.782 446.363 49.1267C444.486 51.931 443.336 55.4838 443.336 59.9316C443.336 75.9003 458.16 80.2721 467.989 80.2721C473.771 80.2721 481.229 78.7642 486.328 74.094V74.5225C486.328 82.9679 479.276 86.1248 468.775 86.1248C462.85 86.08 456.982 84.9608 451.456 82.8215V92.9429C457.205 94.8468 462.494 96.1594 468.58 96.1594C489.447 96.1594 498.158 86.5316 498.158 75.7213V70.4056C499.704 77.6902 508.198 80.1691 516.904 80.1691C526.407 80.1691 534.554 77.2129 537.445 73.4974L538.09 80.5921H549.264V56.2431C549.264 52.9887 549.091 51.1282 548.608 49.6365H554.433V64.0105C554.433 77.1695 564.197 80.7766 574.747 80.7766C578.14 80.6941 581.505 80.1466 584.749 79.1493V69.5052C581.992 70.4969 579.082 70.9963 576.152 70.9806C571.031 70.9806 566.806 69.4347 566.806 64.0756V49.642H590.13V64.0105C590.13 77.1695 599.893 80.7766 610.438 80.7766C613.831 80.6953 617.196 80.1477 620.44 79.1493V77.2075C624.036 79.3771 629.032 80.1962 634.104 80.1962C643.596 80.1962 651.748 77.24 654.639 73.5245L655.301 80.6138H666.475V56.2431C666.469 52.4462 666.236 50.5586 665.558 48.9206ZM344.448 64.4499C344.192 65.1874 343.722 65.8316 343.097 66.2995C342.498 66.6981 341.804 66.9319 341.085 66.9775C340.273 67.0467 339.459 67.0738 338.644 67.0589L313.319 67.1457V54.6701L338.666 54.6159C339.48 54.6 340.295 54.629 341.107 54.7027C341.824 54.749 342.518 54.9807 343.119 55.3753C343.734 55.8456 344.196 56.4872 344.448 57.2195C344.85 58.38 345.033 59.6047 344.99 60.832C345.033 62.061 344.849 63.2874 344.448 64.4499ZM384.381 71.7508C376.521 71.7508 367.978 68.9899 367.978 60.7723C367.978 52.5547 376.521 49.7993 384.381 49.7993C392.24 49.7993 400.778 52.5547 400.778 60.7723C400.778 68.9899 392.257 71.7508 384.402 71.7508H384.381ZM470.75 70.8883C463.286 70.8883 455.171 68.122 455.171 59.9099C455.171 51.6977 463.308 48.9314 470.75 48.9314C478.191 48.9314 486.328 52.4462 486.328 59.9316C486.328 67.4169 478.208 70.8883 470.75 70.8883ZM517.565 71.1813C515.163 71.1813 510.433 70.6388 510.433 67.4711C510.464 66.8458 510.656 66.2391 510.989 65.7092C511.323 65.1792 511.787 64.7437 512.337 64.4445C516.611 61.8463 530.149 61.8463 534.917 61.8463H537.445C537.445 66.6955 529.526 71.2029 517.565 71.2029V71.1813ZM634.754 71.1813C632.352 71.1813 627.622 70.6388 627.622 67.4711C627.652 66.8449 627.844 66.2372 628.179 65.7069C628.513 65.1767 628.979 64.7418 629.531 64.4445C633.8 61.8463 647.338 61.8463 652.106 61.8463H654.634C654.634 66.6955 646.715 71.2029 634.754 71.2029V71.1813Z" fill="white"/>
</g>
<defs>
<clipPath id="clip0_1947_119563">
<rect width="382.002" height="76.2418" fill="white" transform="translate(301.055 19.9033)"/>
</clipPath>
</defs>
</svg>
